src/assets/images/pages/skype.svg

<?xml version="1.0" encoding="utf-8"?>
<svg width="800px" height="800px" viewBox="0 0 32 32" xmlns="http://www.w3.org/2000/svg">
    <symbol id="icon" viewBox="0 0 32 32" fill="none">
        <defs>
            <style>
                .cls-1 {
                    fill: var(--color-1);
                    transition: all 0.2s ease-in-out;
                }
            </style>
        </defs>
        <path class="cls-1"
            d="M26.922 21.014c-.106-1.321-.616-2.223-1.089-2.794.161-.716.254-1.458.254-2.223 0-5.57-4.515-10.085-10.085-10.085-.765 0-1.507.093-2.223.254-.503-.439-1.908-1.416-4.251-1.086C6.542 5.5 4.792 8.417 5 11c.111 1.379.659 2.295 1.148 2.861a10.158 10.158 0 0 0-.231 2.136c0 5.57 4.515 10.086 10.085 10.086.736 0 1.452-.084 2.143-.233.506.44 1.91 1.413 4.249 1.084 2.985-.42 4.736-3.336 4.528-5.92zm-5.938-.248c-.69.774-1.604 1.548-3.797 1.828-3.672.469-5.781-1.312-6.344-1.859s-.656-1.911-.031-2.406c.828-.656 1.512-.545 2.781.75 1.562 1.594 4.093 1.163 4.516.281.359-.75-.078-1.328-.891-1.562-.859-.248-4.05-1.047-4.609-1.266-2.873-1.123-2.219-3.859-2.094-4.297s.456-2.329 4.047-2.891c3.592-.562 5.812 1.188 5.812 1.188 1.312 1.047.797 2.406.078 2.781s-1.328.25-2.312-.656-2.312-.797-2.625-.766-1.281.109-1.515.768.172 1.043.922 1.341c1.469.583 3.362.316 5.484 1.75 2.266 1.531 1.219 4.297.578 5.016z" />
    </symbol>
</svg>

<svg width="800px" height="800px" viewBox="0 0 24 24" xmlns="http://www.w3.org/2000/svg">
    <symbol id="icon" viewBox="0 0 24 24" fill="none">
        <defs>
            <style>
                .cls-1 {
                    fill: var(--color-1);
                    transition: all 0.2s ease-in-out;
                }
            </style>
        </defs>
        <g transform="matrix(0.910939, 0, 0, 0.910939, -2.539493, -2.58133)">
            <path class="cls-1"
                d="M 26.922 21.014 C 26.816 19.693 26.306 18.791 25.833 18.22 C 25.994 17.504 26.087 16.762 26.087 15.997 C 26.087 10.427 21.572 5.912 16.002 5.912 C 15.237 5.912 14.495 6.005 13.779 6.166 C 13.276 5.727 11.871 4.75 9.528 5.08 C 6.542 5.5 4.792 8.417 5 11 C 5.111 12.379 5.659 13.295 6.148 13.861 C 5.996 14.563 5.918 15.279 5.917 15.997 C 5.917 21.567 10.432 26.083 16.002 26.083 C 16.738 26.083 17.454 25.999 18.145 25.85 C 18.651 26.29 20.055 27.263 22.394 26.934 C 25.379 26.514 27.13 23.598 26.922 21.014 L 26.922 21.014 Z M 20.984 20.766 C 20.294 21.54 19.38 22.314 17.187 22.594 C 13.515 23.063 11.406 21.282 10.843 20.735 C 10.28 20.188 10.187 18.824 10.812 18.329 C 11.64 17.673 12.324 17.784 13.593 19.079 C 15.155 20.673 17.686 20.242 18.109 19.36 C 18.468 18.61 18.031 18.032 17.218 17.798 C 16.359 17.55 13.168 16.751 12.609 16.532 C 9.736 15.409 10.39 12.673 10.515 12.235 C 10.64 11.797 10.971 9.906 14.562 9.344 C 18.154 8.782 20.374 10.532 20.374 10.532 C 21.686 11.579 21.171 12.938 20.452 13.313 C 19.733 13.688 19.124 13.563 18.14 12.657 C 17.156 11.751 15.828 11.86 15.515 11.891 C 15.202 11.922 14.234 12 14 12.659 C 13.766 13.318 14.172 13.702 14.922 14 C 16.391 14.583 18.284 14.316 20.406 15.75 C 22.672 17.281 21.625 20.047 20.984 20.766 L 20.984 20.766 Z">
            </path>
        </g>
    </symbol>
</svg>
